X: 100
T: Sabato sancto. Lectio prima
C: Gaspar van Weerbeke
%%abc-version 2.0
%%abcx-abcm2ps-target-version 5.9.1 (29 Sep 2008)
%%abc-creator hum2abc beta
%%abcx-conversion-date 2022/03/06 13:05:57
%%abc-copyright Copyright 2018, Pavanello, Agnese
%%abc-edited-by Zybina, Karina
%%humdrum-veritas 1859995045
%%humdrum-veritas-data 2904969808
%%linebreak <none>
%%barnumbers 0
L: 1/4
M: 2/2
N: Derived from Gas0501d-Sabato_sancto_Lectio_prima.krn
%%staves [1 2 3 4]
V: 1 clef=treble-8
V: 2 clef=treble-8
V: 3 clef=treble-8
V: 4 clef=bass
K: C
[V:1] d4- | 
[V:2] A4- | 
[V:3] D4 | 
[V:4] D,4- | 
[V:1] d4 | 
[V:2] A4 | 
[V:3] F4 | 
[V:4] D,4 | 
[V:1] c4 | 
[V:2] A4 | 
[V:3] E4 | 
[V:4] A,,4 | 
[V:1] d4 | 
[V:2] F4 | 
[V:3] D4 | 
[V:4] _B,,4 | 
[V:1] d3c | 
[V:2] G4- | 
[V:3] G4- | 
[V:4] G,,4- | 
[V:1] _B4 | 
[V:2] G4 | 
[V:3] G4 | 
[V:4] G,,4 | 
[V:1] A4 ||  
[V:2] c4 ||  
[V:3] E4 ||  
[V:4] A,,4 ||  
[V:1] c4 | 
[V:2] A4 | 
[V:3] E4 | 
[V:4] A,,4 | 
[V:1] d4 | 
[V:2] A4 | 
[V:3] F4 | 
[V:4] D,4 | 
[V:1] d2e2- | 
[V:2] B2c2- | 
[V:3] F2G2- | 
[V:4] D,2C,2- | 
[V:1] e2e2 | 
[V:2] c2c2 | 
[V:3] G2A2 | 
[V:4] C,2A,,2 | 
[V:1] e2e2- | 
[V:2] c2c2- | 
[V:3] A2G2- | 
[V:4] A,,2C,2- | 
[V:1] e2d2 | 
[V:2] c2G2 | 
[V:3] G2G2 | 
[V:4] C,2_B,,2 | 
[V:1] c4 | 
[V:2] A4 | 
[V:3] E4 | 
[V:4] A,,4 | 
[V:1] z4 | 
[V:2] z4 | 
[V:3] z4 | 
[V:4] z4 | 
[V:1] f4 | 
[V:2] d4 | 
[V:3] D4 | 
[V:4] A,4 | 
[V:1] f2e2 | 
[V:2] c2c2 | 
[V:3] F2C2 | 
[V:4] A,2G,2 | 
[V:1] d4 | 
[V:2] A4 | 
[V:3] D4 | 
[V:4] F,4 | 
[V:1] e4 | 
[V:2] A4 | 
[V:3] A,4 | 
[V:4] E,4 | 
[V:1] A3B | 
[V:2] d4 | 
[V:3] F4 | 
[V:4] D,4 | 
[V:1] c2d2 | 
[V:2] z2d2- | 
[V:3] E2D2 | 
[V:4] C,2_B,,2 | 
[V:1] e4 | 
[V:2] d^c/B/^c2 | 
[V:3] A4- | 
[V:4] A,,4 | 
[V:1] d4 | 
[V:2] d4 | 
[V:3] A4 | 
[V:4] D,4 | 
[V:1] z4 | 
[V:2] z4 | 
[V:3] z4 | 
[V:4] z4 | 
[V:1] z2g2- | 
[V:2] z2G2 | 
[V:3] z2E2 | 
[V:4] z2C,2- | 
[V:1] g2g2 | 
[V:2] c2_B2 | 
[V:3] E2G2 | 
[V:4] C,2G,,2 | 
[V:1] f2e2 | 
[V:2] A4 | 
[V:3] A2A2- | 
[V:4] D,2C,2 | 
[V:1] d4 | 
[V:2] D4 | 
[V:3] A2G2 | 
[V:4] _B,,4 | 
[V:1] c4 | 
[V:2] E4 | 
[V:3] A4 | 
[V:4] A,,4 | 
[V:1] c2d2 | 
[V:2] A2G2 | 
[V:3] E2D2 | 
[V:4] A,,2_B,,2 | 
[V:1] c2d2 | 
[V:2] A2_B2 | 
[V:3] E2F2 | 
[V:4] A,,2D,2 | 
[V:1] e4 | 
[V:2] c4 | 
[V:3] G4 | 
[V:4] C,4 | 
[V:1] f4 | 
[V:2] c4 | 
[V:3] A4 | 
[V:4] F,,4 | 
[V:1] e2d2- | 
[V:2] c2G2 | 
[V:3] G2D2 | 
[V:4] C,2_B,,2 | 
[V:1] d^c/B/^c2 | 
[V:2] A4 | 
[V:3] E4 | 
[V:4] A,,4 | 
[V:1] d4 ||  
[V:2] F4 ||  
[V:3] D4 ||  
[V:4] D,4 ||  
[V:1] A4- | 
[V:2] F4 | 
[V:3] D4 | 
[V:4] D,4 | 
[V:1] A4 | 
[V:2] c4 | 
[V:3] E4- | 
[V:4] A,,4- | 
[V:1] c4 | 
[V:2] A4- | 
[V:3] E4 | 
[V:4] A,,4 | 
[V:1] d4- | 
[V:2] A2D2 | 
[V:3] F4 | 
[V:4] D,4 | 
[V:1] d2B2 | 
[V:2] D4- | 
[V:3] G4- | 
[V:4] G,,4- | 
[V:1] B4 ||  
[V:2] D4 ||  
[V:3] G4 ||  
[V:4] G,,4 ||  
[V:1] e4 | 
[V:2] A4 | 
[V:3] C4 | 
[V:4] A,,4 | 
[V:1] e4 | 
[V:2] G2c2- | 
[V:3] E2G2 | 
[V:4] C,4 | 
[V:1] e2f2- | 
[V:2] c2FG | 
[V:3] A4- | 
[V:4] A,,2D,2- | 
[V:1] f2e2 | 
[V:2] ABc2 | 
[V:3] A2A2 | 
[V:4] D,2C,2 | 
[V:1] e4 | 
[V:2] c4 | 
[V:3] A4 | 
[V:4] A,,4 | 
[V:1] z4 | 
[V:2] z4 | 
[V:3] z4 | 
[V:4] z4 | 
[V:1] f4- | 
[V:2] d4- | 
[V:3] A4- | 
[V:4] D,4- | 
[V:1] f2f2 | 
[V:2] d2d2 | 
[V:3] A2_B2 | 
[V:4] D,2_B,,2 | 
[V:1] f4 | 
[V:2] d4 | 
[V:3] _B4 | 
[V:4] _B,,4 | 
[V:1] d4 | 
[V:2] z2d2 | 
[V:3] F2G2 | 
[V:4] _B,,4 | 
[V:1] e4 | 
[V:2] c4 | 
[V:3] A4 | 
[V:4] A,,4 | 
[V:1] d2c2- | 
[V:2] z2G2- | 
[V:3] F2E2 | 
[V:4] _B,,2C,2 | 
[V:1] cB/A/B2 | 
[V:2] G2G2 | 
[V:3] D4 | 
[V:4] G,,4 | 
[V:1] c4 ||  
[V:2] G4 ||  
[V:3] C4 ||  
[V:4] C,4 ||  
[V:1] d4 | 
[V:2] G4 | 
[V:3] G3F/E/ | 
[V:4] G,,4- | 
[V:1] d3c/B/ | 
[V:2] G4 | 
[V:3] D4 | 
[V:4] G,,4 | 
[V:1] A2d2 | 
[V:2] E>FG2 | 
[V:3] C2D2 | 
[V:4] A,,2_B,,2 | 
[V:1] c4 ||  
[V:2] A4 ||  
[V:3] E4 ||  
[V:4] A,,4 ||  
[V:1] c4 | 
[V:2] A4 | 
[V:3] E4 | 
[V:4] A,,4 | 
[V:1] d2d2- | 
[V:2] F2D2- | 
[V:3] D2F2- | 
[V:4] _B,,2B,,2- | 
[V:1] d2^c2- | 
[V:2] D2E2- | 
[V:3] F2A2- | 
[V:4] B,,2A,,2- | 
[V:1] c2^c2 | 
[V:2] E2E2 | 
[V:3] A2A2 | 
[V:4] A,,2A,,2 | 
[V:1] d4 | 
[V:2] F4 | 
[V:3] D4 | 
[V:4] D,4 | 
[V:1] z2d2 | 
[V:2] z2A2 | 
[V:3] z2F2 | 
[V:4] z2D,2 | 
[V:1] e2f2 | 
[V:2] c2A2 | 
[V:3] G2F2 | 
[V:4] C,2D,2 | 
[V:1] g4 | 
[V:2] d4 | 
[V:3] _B4 | 
[V:4] G,,4 | 
[V:1] f2f2- | 
[V:2] d>cA3/B/ | 
[V:3] A2F2 | 
[V:4] D,4 | 
[V:1] f2e2 | 
[V:2] c4 | 
[V:3] G4 | 
[V:4] C,4 | 
[V:1] f4 | 
[V:2] c4 | 
[V:3] F4 | 
[V:4] [F,,4F,4] | 
[V:1] z2e2 | 
[V:2] z2c2 | 
[V:3] z2G2 | 
[V:4] z2C,2 | 
[V:1] e2e2 | 
[V:2] c2c2 | 
[V:3] G2A2 | 
[V:4] C,2A,,2 | 
[V:1] z2e2 | 
[V:2] z2c2 | 
[V:3] z2A2 | 
[V:4] z2A,,2 | 
[V:1] f4 | 
[V:2] d4 | 
[V:3] A4 | 
[V:4] D,4 | 
[V:1] e2d2 | 
[V:2] c2A2 | 
[V:3] A2F2 | 
[V:4] A,,2D,2 | 
[V:1] c3d | 
[V:2] A4 | 
[V:3] E2A2 | 
[V:4] A,,4 | 
[V:1] e2d2- | 
[V:2] z2_B2 | 
[V:3] G3F | 
[V:4] C,2G,,2 | 
[V:1] d2^c2 | 
[V:2] A4- | 
[V:3] E4 | 
[V:4] A,,4 | 
[V:1] d4 ||  
[V:2] A4 ||  
[V:3] D4 ||  
[V:4] D,4 ||  
[V:1] c4 | 
[V:2] A4 | 
[V:3] E4 | 
[V:4] A,,4 | 
[V:1] d4 | 
[V:2] F2G2 | 
[V:3] D4 | 
[V:4] _B,,4 | 
[V:1] e4 | 
[V:2] c4- | 
[V:3] A4 | 
[V:4] A,,4 | 
[V:1] e2e2 | 
[V:2] c2c2 | 
[V:3] G2G2 | 
[V:4] C,2C,2 | 
[V:1] e4- | 
[V:2] c4 | 
[V:3] A2G2 | 
[V:4] C,4 | 
[V:1] e4 | 
[V:2] c4 | 
[V:3] A4 | 
[V:4] A,,4 | 
[V:1] z2f2- | 
[V:2] z2d2- | 
[V:3] z2D2- | 
[V:4] z4 | 
[V:1] f2e2 | 
[V:2] d2B2- | 
[V:3] D2G2- | 
[V:4] z4 | 
[V:1] d2f2- | 
[V:2] B2d2 | 
[V:3] GFD2 | 
[V:4] z4 | 
[V:1] fee2- | 
[V:2] c2B2- | 
[V:3] A2G2 | 
[V:4] z4 | 
[V:1] e2d2 | 
[V:2] BA/G/A2 | 
[V:3] F4 | 
[V:4] z4 | 
[V:1] e4 | 
[V:2] B4 | 
[V:3] E4 | 
[V:4] z4 | 
[V:1] A2c2- | 
[V:2] c4 | 
[V:3] E4 | 
[V:4] A,,4 | 
[V:1] c2d2 | 
[V:2] A2_B2 | 
[V:3] F2G2- | 
[V:4] A,,2G,,2 | 
[V:1] d3c/B/ | 
[V:2] G4 | 
[V:3] GFD2 | 
[V:4] _B,,4 | 
[V:1] c4 | 
[V:2] A4 | 
[V:3] E4 | 
[V:4] A,,4 | 
[V:1] z2f2- | 
[V:2] A3G | 
[V:3] D4 | 
[V:4] D,4- | 
[V:1] f2e2 | 
[V:2] ABc2 | 
[V:3] z4 | 
[V:4] D,2A,,2 | 
[V:1] d2e2- | 
[V:2] d4 | 
[V:3] z2A2- | 
[V:4] _B,,2A,,2- | 
[V:1] e2d2 | 
[V:2] ^c2d2 | 
[V:3] A2B2 | 
[V:4] A,,2D,2 | 
[V:1] g3f | 
[V:2] e3d | 
[V:3] c3B/A/ | 
[V:4] C,4- | 
[V:1] e2d2 | 
[V:2] c2_B2 | 
[V:3] G4 | 
[V:4] C,2G,,2 | 
[V:1] c2d2- | 
[V:2] A2G2 | 
[V:3] E2D2 | 
[V:4] A,,2_B,,2 | 
[V:1] d^c/B/^c2 | 
[V:2] A4 | 
[V:3] E4 | 
[V:4] A,,4 | 
[V:1] d4 |]  
[V:2] A4 |]  
[V:3] D4 |]  
[V:4] D,4 |]  


